X:1
T:Sag, welches ist dann je
T:Georg Vogler
T:Source : Catechismus---Würzburg---J.Volmari---1652. Editor : André Vierendeels (24/09/17).
T:Notes : Original clefs : C1, F4 Original note values have been quartered Text Middle German 
T:Sag, welches ist dann je
T:©
T:©
T:©
C:Georg Vogler
Z:©
%%score [ 1 2 ]
L:1/8
Q:1/4=120
M:3/4
K:F
V:1 treble nm="Soprano" snm="S"
V:2 bass nm="Bass" snm="B"
V:1
 z2 z2 G2 |"^1)" G4 D2 | G4 B2 | A3 G A2 | G4 c2 | c4 B2 |"^1)""^3)" A4 G2 | B2 A4 | G6 | %9
w: Sag,|wel- ches|ist dann|je- * tzo|mehr, das|an- der|Haupt- stück|un- ser|Lehr;|
w: War-|ausz lehrt|man dann,|wie _ und|wann man|recht hof-|fen und|bit- ten|kan?|
 z2 z2 G2 | G4 D2 | G4 B2 | A3 G A2 | G4 c2 | c4 B2 | A4 G2 | B2 A4 | G4 d2 | d2 d2 B2 | c4 d2 | %20
w: Hoff-|nung ein|Tu- gend|ein- ge- gos-|sen, von|Gott dem|Men- schen|her- gflos-|sen: durch|wel- che der|Christ _|
w: Wann|man das|Va- ter-|un- * ser|hört? Wel-|ches Chri-|stus uns|selbst ge-|lehrt, und|zu bet- ten|be- *|
 B4 A2 | B4 d2 | d2 d2 B2 | A4 G2 | c2 A4 | G4 G2 | E4 F2 | G4 G2 | E4 F2 | G4 G2 | B4 c2 | d4 c2 | %32
w: wart und|hart: und|kein ver- tra-|wen nim-|* mer|spart, Gott|werd ihm|ge- ben|al- les|heut, so|ihm zum|Him- mel|
w: foh- len|hat, mit|Lieb und an-|dacht, früh|_ und|späth. der|Bitt zein|sie- ben,|und nicht|mehr, sie|rei- chen|all zu|
 B4 A2 | G6 |] %34
w: hel- ffen|thut.|
w: Got- tes|Ehr.|
V:2
 z2 z2 G,2 |"^2)" G,4 G,2 | G,4 G,,2 | D,4 D,2 | G,,4 F,,2 | F,,4 G,,2 | A,,4 C,2 | G,,2 D,4 | %8
w: Sag,|wel- ches|ist dann|je tzo|mehr, das|an- der|Haupt- stück|un- ser|
w: Sag|un- er-|schro- cken,|keck ver-|trawt, das|Vat- ter|un- ser,|wie es|
 G,,6 | z2 z2 G,2 | G,4 G,2 | G,4 G,,2 | D,3 D, D,2 | G,,4 F,,2 | F,,4 G,,2 | A,,4 C,2 | G,,2 D,4 | %17
w: Lehr,|Hoff-|nung ein|Tu- gens|ein- ge- gos-|sen, von|Gott dem|Men- schen|her- gflos-|
w: laut?|Vat-|ter un-|ser, im|_ Him- mel-|reich, ge-|hei- ligt|werd dein|Nam zu-|
 G,,4 G,2 | G,2 G,2 G,2 | F,3 E, D,2 | _E,2 E,4 | B,,4 B,2 | B,4 G,2 | D,4 _E,2 | C,2 D,4 | %25
w: sen: durch|wel- che der|Christ _ _|wart und|hart: und|kein ver|tra- wen|nim- mer|
w: gleich: Zu-|komm dein Reich|und _ _|Re- gi-|ment, Nichts|bes- sers|wer- den|kan be-|
 G,,4 G,,2 | C,4 D,2 | G,,4 G,,2 | C,4 D,2 | G,,4 G,2 | G,4 F,2 | B,,4 F,2 | G,2 D,4 | G,,6 |] %34
w: spart, Gott|werd ihm|ge- ben|al- les|heut, so|ihm zum|Him- mel|hel- ffen|thut.|
w: nennt, wie|in Him-|mel al-|so auff|Erd, gib|dasz dein|Will voll-|zo- gen|werd.|

